images_elementary_svg/cmd/sc_deleteslide.svg

<?xml version="1.0" encoding="UTF-8" standalone="no"?>
<svg
   xmlns:dc="http://purl.org/dc/elements/1.1/"
   xmlns:cc="http://creativecommons.org/ns#"
   xmlns:rdf="http://www.w3.org/1999/02/22-rdf-syntax-ns#"
   xmlns:svg="http://www.w3.org/2000/svg"
   xmlns="http://www.w3.org/2000/svg"
   xmlns:xlink="http://www.w3.org/1999/xlink"
   xmlns:sodipodi="http://sodipodi.sourceforge.net/DTD/sodipodi-0.dtd"
   xmlns:inkscape="http://www.inkscape.org/namespaces/inkscape"
   id="svg3942"
   height="16"
   width="16"
   version="1.1"
   sodipodi:docname="sc_deleteslide.svg"
   inkscape:export-filename="/home/rizmut/Dokumen/Rizmut/Github/libreoffice-style-elementary/images_elementary/cmd/sc_deleteslide.png"
   inkscape:export-xdpi="96"
   inkscape:export-ydpi="96"
   inkscape:version="0.92.3 (unknown)">
  <sodipodi:namedview
     pagecolor="#ffffff"
     bordercolor="#666666"
     borderopacity="1"
     objecttolerance="10"
     gridtolerance="10"
     guidetolerance="10"
     inkscape:pageopacity="0"
     inkscape:pageshadow="2"
     inkscape:window-width="1366"
     inkscape:window-height="706"
     id="namedview23"
     showgrid="true"
     inkscape:zoom="14.75"
     inkscape:cx="-10.660076"
     inkscape:cy="5.3299371"
     inkscape:window-x="0"
     inkscape:window-y="0"
     inkscape:window-maximized="1"
     inkscape:current-layer="svg3942">
    <inkscape:grid
       type="xygrid"
       id="grid941" />
  </sodipodi:namedview>
  <defs
     id="defs3944">
    <linearGradient
       gradientTransform="matrix(0.25378586,0,0,0.30501865,19.128979,-0.68547704)"
       gradientUnits="userSpaceOnUse"
       xlink:href="#linearGradient3104-9"
       id="linearGradient3092"
       y2="28.475233"
       x2="-59.613167"
       y1="28.475233"
       x1="-20.209869" />
    <linearGradient
       id="linearGradient3104-9">
      <stop
         offset="0"
         style="stop-color:#000000;stop-opacity:0.33950618"
         id="stop3106-5" />
      <stop
         offset="1"
         style="stop-color:#000000;stop-opacity:0.24691358"
         id="stop3108-5" />
    </linearGradient>
    <linearGradient
       gradientTransform="matrix(0.24324324,0,0,0.35135133,2.1621636,-0.43242804)"
       gradientUnits="userSpaceOnUse"
       xlink:href="#linearGradient3977"
       id="linearGradient3095"
       y2="23.999989"
       x2="40.444439"
       y1="23.999989"
       x1="7.5555496" />
    <linearGradient
       id="linearGradient3977">
      <stop
         offset="0"
         style="stop-color:#ffffff;stop-opacity:1"
         id="stop3979" />
      <stop
         offset="0.25000018"
         style="stop-color:#ffffff;stop-opacity:0.23529412"
         id="stop3981" />
      <stop
         offset="1"
         style="stop-color:#ffffff;stop-opacity:0.15686275"
         id="stop3983" />
      <stop
         offset="1"
         style="stop-color:#ffffff;stop-opacity:0.39215687"
         id="stop3985" />
    </linearGradient>
    <linearGradient
       id="linearGradient3600">
      <stop
         offset="0"
         style="stop-color:#f4f4f4;stop-opacity:1"
         id="stop3602" />
      <stop
         offset="1"
         style="stop-color:#dbdbdb;stop-opacity:1"
         id="stop3604" />
    </linearGradient>
    <linearGradient
       gradientTransform="matrix(0.28571361,0,0,0.30419701,1.1428727,0.2326048)"
       gradientUnits="userSpaceOnUse"
       xlink:href="#linearGradient3600"
       id="linearGradient3940"
       y2="22.246752"
       x2="45.000053"
       y1="22.246752"
       x1="9.9999695" />
    <linearGradient
       x1="63.9995"
       y1="3.1001"
       x2="63.9995"
       y2="122.8994"
       id="linearGradient3309"
       gradientUnits="userSpaceOnUse">
      <stop
         id="stop3311"
         style="stop-color:#f6f6f6;stop-opacity:1"
         offset="0" />
      <stop
         id="stop3313"
         style="stop-color:#e6e6e6;stop-opacity:1;"
         offset="1" />
    </linearGradient>
    <linearGradient
       id="linearGradient3397">
      <stop
         id="stop3399"
         style="stop-color:#888888;stop-opacity:1;"
         offset="0" />
      <stop
         id="stop3401"
         style="stop-color:#626262;stop-opacity:1;"
         offset="1" />
    </linearGradient>
    <linearGradient
       id="linearGradient5128">
      <stop
         id="stop5130"
         style="stop-color:#efefef;stop-opacity:1;"
         offset="0" />
      <stop
         id="stop5132"
         style="stop-color:#c9c9c9;stop-opacity:1;"
         offset="1" />
    </linearGradient>
    <radialGradient
       gradientTransform="matrix(0,0.38528829,-0.41958841,0,32.389496,-16.793007)"
       gradientUnits="userSpaceOnUse"
       xlink:href="#linearGradient3242-7-3-8-0-4-58-06"
       id="radialGradient3259"
       fy="48.605404"
       fx="64.575233"
       r="31.000002"
       cy="48.605404"
       cx="64.575233" />
    <linearGradient
       id="linearGradient3242-7-3-8-0-4-58-06">
      <stop
         offset="0"
         style="stop-color:#cdf87e;stop-opacity:1"
         id="stop3244-5-8-5-6-4-3-8" />
      <stop
         offset="0.26238"
         style="stop-color:#a2e34f;stop-opacity:1"
         id="stop3246-9-5-1-5-3-0-7" />
      <stop
         offset="0.66093999"
         style="stop-color:#68b723;stop-opacity:1"
         id="stop3248-7-2-0-7-5-35-9" />
      <stop
         offset="1"
         style="stop-color:#1d7e0d;stop-opacity:1"
         id="stop3250-8-2-8-5-6-40-4" />
    </linearGradient>
    <linearGradient
       id="b"
       gradientTransform="matrix(0.36872249,0,0,0.38856797,7.575734,7.143101)"
       gradientUnits="userSpaceOnUse"
       x1="11.192374"
       x2="11.192374"
       y1="4.0641632"
       y2="30.298229">
      <stop
         offset="0"
         stop-color="#ed5353"
         id="stop11" />
      <stop
         offset="1"
         stop-color="#c6262e"
         id="stop13" />
    </linearGradient>
    <linearGradient
       id="c"
       gradientTransform="matrix(0.1959881,-0.20631521,0.1959881,0.20631521,2.397994,11.792362)"
       gradientUnits="userSpaceOnUse"
       x1="36.010902"
       x2="16.331276"
       xlink:href="#d"
       y1="13.022708"
       y2="32.702335" />
    <linearGradient
       id="d">
      <stop
         offset="0"
         stop-color="#fff"
         id="stop17" />
      <stop
         offset=".507761"
         stop-color="#fff"
         stop-opacity=".235294"
         id="stop19" />
      <stop
         offset=".83456558"
         stop-color="#fff"
         stop-opacity=".156863"
         id="stop21" />
      <stop
         offset="1"
         stop-color="#fff"
         stop-opacity=".392157"
         id="stop23" />
    </linearGradient>
    <linearGradient
       id="e"
       gradientTransform="matrix(0.1959881,-0.20631521,0.1959881,0.20631521,2.200421,11.896463)"
       gradientUnits="userSpaceOnUse"
       x1="28.449389"
       x2="16.331276"
       xlink:href="#d"
       y1="20.584223"
       y2="32.702335" />
  </defs>
  <metadata
     id="metadata3947">
    <rdf:RDF>
      <cc:Work
         rdf:about="">
        <dc:format>image/svg+xml</dc:format>
        <dc:type
           rdf:resource="http://purl.org/dc/dcmitype/StillImage" />
        <dc:title></dc:title>
      </cc:Work>
    </rdf:RDF>
  </metadata>
  <g
     id="g946"
     transform="rotate(90,8,8)">
    <path
       style="display:inline;fill:url(#linearGradient3940);fill-opacity:1;stroke:none"
       id="path4160"
       d="m 3,1 c 2.2915074,0 9.999988,8.904e-4 9.999988,8.904e-4 L 13,15 C 13,15 6.3333332,15 3,15 3,10.333334 3,5.6666664 3,1 Z"
       inkscape:connector-curvature="0" />
    <path
       style="fill:none;stroke:url(#linearGradient3095);stroke-width:1;stroke-linecap:round;stroke-linejoin:miter;stroke-miterlimit:4;stroke-dasharray:none;stroke-dashoffset:0;stroke-opacity:1"
       id="rect6741-1"
       d="M 12.5,14.5 H 3.4999999 V 1.5 H 12.5 Z"
       inkscape:connector-curvature="0" />
    <path
       style="display:inline;fill:none;stroke:url(#linearGradient3092);stroke-width:0.99992192;stroke-linecap:butt;stroke-linejoin:round;stroke-miterlimit:4;stroke-dasharray:none;stroke-dashoffset:0;stroke-opacity:1"
       id="path4160-8"
       d="m 2.4999621,0.49997396 c 2.5206756,0 11.0000629,9.54e-4 11.0000629,9.54e-4 l 1.3e-5,14.99909804 c 0,0 -7.3333841,0 -11.000076,0 0,-5.000017 0,-10.000035 10e-8,-15.00005204 z"
       inkscape:connector-curvature="0" />
  </g>
  <g
     id="g890">
    <path
       id="path39"
       d="M 15.503272,14.059536 13.474796,11.998928 15.426667,9.8402184 14.01964,8.5030888 12.010897,10.560212 9.9614433,8.5030888 8.4975447,9.8894005 l 2.0494543,2.1007345 -2.0494543,2.067189 1.4638986,1.439987 2.0470757,-2.159981 2.051842,2.159981 z"
       style="fill:url(#b);stroke:#b10000;stroke-width:1.00026202;stroke-linejoin:round"
       inkscape:connector-curvature="0" />
    <path
       id="path41"
       d="M 14.024427,9.9204409 12.027954,11.980904 9.9459889,9.9224044"
       style="opacity:0.5;fill:none;stroke:url(#c);stroke-linecap:square;stroke-linejoin:round"
       inkscape:connector-curvature="0" />
    <path
       id="path43"
       d="m 14.365439,14.468928 -1.658566,-1.897836 m -1.422064,0.0812 -1.7309617,1.722531"
       style="opacity:0.4;fill:none;stroke:url(#e);stroke-width:1.00026202"
       inkscape:connector-curvature="0" />
  </g>
</svg>

<svg xmlns="http://www.w3.org/2000/svg" xmlns:xlink="http://www.w3.org/1999/xlink" height="16" width="16"><defs><linearGradient gradientTransform="matrix(.2538 0 0 .30502 19.13 -.685)" gradientUnits="userSpaceOnUse" xlink:href="#a" id="h" y2="28.475" x2="-59.613" y1="28.475" x1="-20.21"/><linearGradient id="a"><stop offset="0" stop-opacity=".34"/><stop offset="1" stop-opacity=".247"/></linearGradient><linearGradient gradientTransform="matrix(.24324 0 0 .35135 2.162 -.432)" gradientUnits="userSpaceOnUse" xlink:href="#b" id="g" y2="24" x2="40.444" y1="24" x1="7.556"/><linearGradient id="b"><stop offset="0" stop-color="#fff"/><stop offset=".25" stop-color="#fff" stop-opacity=".235"/><stop offset="1" stop-color="#fff" stop-opacity=".157"/><stop offset="1" stop-color="#fff" stop-opacity=".392"/></linearGradient><linearGradient id="c"><stop offset="0" stop-color="#f4f4f4"/><stop offset="1" stop-color="#dbdbdb"/></linearGradient><linearGradient gradientTransform="matrix(.2857 0 0 .3042 1.143 .233)" gradientUnits="userSpaceOnUse" xlink:href="#c" id="f" y2="22.247" x2="45" y1="22.247" x1="10"/><linearGradient id="d"><stop offset="0" stop-color="#cdf87e"/><stop offset=".262" stop-color="#a2e34f"/><stop offset=".661" stop-color="#68b723"/><stop offset="1" stop-color="#1d7e0d"/></linearGradient><linearGradient id="i" gradientTransform="matrix(.36872 0 0 .38857 7.576 7.143)" gradientUnits="userSpaceOnUse" x1="11.192" x2="11.192" y1="4.064" y2="30.298"><stop offset="0" stop-color="#ed5353"/><stop offset="1" stop-color="#c6262e"/></linearGradient><linearGradient id="j" gradientTransform="scale(.27717 .29177) rotate(-45 53.112 9.764)" gradientUnits="userSpaceOnUse" x1="36.011" x2="16.331" xlink:href="#e" y1="13.023" y2="32.702"/><linearGradient id="e"><stop offset="0" stop-color="#fff"/><stop offset=".508" stop-color="#fff" stop-opacity=".235"/><stop offset=".835" stop-color="#fff" stop-opacity=".157"/><stop offset="1" stop-color="#fff" stop-opacity=".392"/></linearGradient><linearGradient id="k" gradientTransform="matrix(.196 -.20632 .196 .20632 2.2 11.896)" gradientUnits="userSpaceOnUse" x1="28.449" x2="16.331" xlink:href="#e" y1="20.584" y2="32.702"/></defs><path d="M3 1h10v14H3V1z" fill="url(#f)" transform="rotate(90 8 8)"/><path d="M12.5 14.5h-9v-13h9z" fill="none" stroke="url(#g)" stroke-linecap="round" transform="rotate(90 8 8)"/><path d="M2.5.5h11v15h-11V.5z" fill="none" stroke="url(#h)" stroke-linejoin="round" transform="rotate(90 8 8)"/><g><path d="M15.503 14.06L13.475 12l1.952-2.16-1.407-1.337-2.01 2.057-2.05-2.057L8.5 9.89l2.05 2.1-2.05 2.067 1.463 1.44 2.05-2.16 2.05 2.16z" fill="url(#i)" stroke="#b10000" stroke-linejoin="round"/><path d="M14.024 9.92l-1.996 2.06-2.082-2.058" opacity=".5" fill="none" stroke="url(#j)" stroke-linecap="square" stroke-linejoin="round"/><path d="M14.365 14.47l-1.658-1.9m-1.422.082l-1.73 1.723" opacity=".4" fill="none" stroke="url(#k)"/></g></svg>
